X:1
T:Fully Trusting
T:Fully Trusting
T:George Coles Stebbins
T:J. C. Morgan, 1874
T:Public Domain Courtesy of the Cyber Hymnal™
C:George Coles Stebbins
Z:Public Domain
Z:Courtesy of the Cyber Hymnal™
%%score ( 1 2 ) 3
L:1/8
Q:1/4=100
M:4/4
K:F
V:1 treble 
V:2 treble 
V:3 bass 
V:1
 [Ac]>"^Slowly"[Bd] | [Ac]2 [FA]2 [FA]>[FB] | [FA]2 F2 [CE]F | [EG]3 [FA] [GB][Ec] | %4
w: 1.~All my|doubts I give to|Je- sus! I’ve His|gra- cious pro- mise|
w: 2.~All my|sin I lay on|Je- sus! He doth|wash me in His|
w: 3.~All my|fears I give to|Je- sus! Rests my|wea- ry soul on|
w: 4.~All my|joys I give to|Je- sus! He is|all I want of|
w: 5.~All I|am I give to|Je- sus! All my|bo- dy, all my|
 [FA]4 [Ac]>[Bd] | [Ac]2 [FA]2 [FA]>[FB] | [FA]2 [CF]2 F[_EF] | [DF][GB] [FA]2 [EG]2 | F4 || %9
w: heard— “I shall|ne- ver be con-|found- ed”— I am|trust- ing in that|word.|
w: blood; He will|keep me pure and|ho- ly, He will|bring me home to|God.|
w: Him; Tho’ my|way be hid in|dark- ness, Ne- ver|can His light grow|dim.|
w: bliss; He of|all the worlds is|mas- ter— He has|all I need in|this.|
w: soul, All I|have, and all I|hope for, While e-|ter- nal ag- es|roll.|
"^Refrain" [Fc]>[Fc] | [Fd]2 [DB]2 [Fd]>[Fd] | [Fc]2 [FA]2 [Fc][FA] | [EG][Gc] [Ge]2 [Fd]2 | %13
w: ||||
w: ||||
w: I am|trust- ing, ful- ly|trust- ing, Sweet- ly|trust- ing in His|
w: ||||
w: ||||
 !fermata!c4 [Ac]>[Bd] | [Ac]2 [FA]2 [FA]>[FB] | [FA]2 [CF]2 F[_EF] | [DF][GB] [FA]2 [EG]2 | F4 |] %18
w: |||||
w: |||||
w: Word; I am|trust- ing, ful- ly|trust- ing, Sweet- ly|trust- ing in His|Word.|
w: |||||
w: |||||
V:2
 x2 | x6 | x2 F2 F x | x6 | x6 | x6 | x4 F x | x6 | F4 || x2 | x6 | x6 | x6 | (E2 B2) x2 | x6 | %15
 x4 F x | x6 | F4 |] %18
V:3
 [F,C]>[F,C] | [F,C]2 [F,C]2 [F,C]>[F,D] | [F,C]2 [A,C]2 [B,C][A,C] | [G,C]3 [F,C] [E,C][C,C] | %4
 [F,C]4 [F,C]>[F,C] | [F,C]2 [F,C]2 [F,C]>[F,D] | [F,C]2 [F,A,]2 [D,A,][C,A,] | %7
 [B,,B,][G,,D] [C,C]2 [C,B,]2 | [F,A,]4 || [F,A,]>[F,A,] | [B,,B,]2 [B,,F,]2 [B,,B,]>[B,,B,] | %11
 [F,A,]2 [F,C]2 [F,A,][F,C] | [G,C][G,E] [G,C]2 [G,,=B,]2 | !fermata![C,C]4 [F,C]>[F,C] | %14
 [F,C]2 [F,C]2 [F,C]>[F,D] | [F,C]2 [F,A,]2 [D,A,][C,A,] | [B,,B,][G,,D] [C,C]2 [C,B,]2 | %17
 [F,A,]4 |] %18

